icons/ArrowUp_filled.svg

<svg width="24" height="24" viewBox="0 0 24 24" fill="none" xmlns="http://www.w3.org/2000/svg">
<path fill-rule="evenodd" clip-rule="evenodd" d="M11.1161,4.11612c0.4882,-0.48816 1.2796,-0.48816 1.7678,0l6,5.99998c0.4881,0.4882 0.4881,1.2796 0,1.7678c-0.4882,0.4881 -1.2796,0.4881 -1.7678,0l-3.8661,-3.86613v10.98223c0,0.6904 -0.5596,1.25 -1.25,1.25c-0.6904,0 -1.25,-0.5596 -1.25,-1.25v-10.98223l-3.86612,3.86613c-0.48815,0.4881 -1.27961,0.4881 -1.76776,0c-0.48816,-0.4882 -0.48816,-1.2796 0,-1.7678z" fill="#002B51"/>
</svg>

<svg width="24" height="24" viewBox="0 0 24 24" fill="none" xmlns="http://www.w3.org/2000/svg">
<path fill-rule="evenodd" clip-rule="evenodd" d="M11.1161 4.11612C11.6043 3.62796 12.3957 3.62796 12.8839 4.11612L18.8839 10.1161C19.372 10.6043 19.372 11.3957 18.8839 11.8839C18.3957 12.372 17.6043 12.372 17.1161 11.8839L13.25 8.01777V19C13.25 19.6904 12.6904 20.25 12 20.25C11.3096 20.25 10.75 19.6904 10.75 19V8.01777L6.88388 11.8839C6.39573 12.372 5.60427 12.372 5.11612 11.8839C4.62796 11.3957 4.62796 10.6043 5.11612 10.1161L11.1161 4.11612Z" fill="#002B51"/>
</svg>
